img/logo.svg

<svg width="140" height="40" viewBox="0 0 140 40" fill="none" xmlns="http://www.w3.org/2000/svg">
<path d="M21.3284 16.1905C21.4564 16.2545 21.5204 16.3825 21.4564 16.5105C18.5767 22.078 11.7293 24.3178 6.16184 21.438C2.19421 19.3902 -0.237566 15.2306 0.0184104 10.751C0.274387 4.92754 5.00995 0.255976 10.8334 0H11.3454C15.633 0 19.5366 2.36778 21.4564 6.14343C21.5204 6.27142 21.4564 6.39941 21.3284 6.5274L18.3207 7.87127C18.1927 7.93527 18.0647 7.87127 18.0008 7.74329C16.0169 4.09562 11.4094 2.68775 7.7617 4.73556C5.07394 6.14343 3.53809 8.95917 3.79406 11.9669C4.11403 15.6146 6.92977 18.4943 10.5134 18.9423C10.7694 18.9423 11.0254 19.0062 11.2814 19.0062C14.0331 19.0062 16.5929 17.4704 17.9368 15.0386C18.0008 14.9106 18.1287 14.8466 18.2567 14.9106L21.3284 16.1905Z" fill="#212629"/>
<path d="M70.4759 0C64.2045 0 59.085 5.11953 59.085 11.3909C59.085 17.6624 64.2045 22.7819 70.4759 22.7819C76.7473 22.7819 81.8669 17.6624 81.8669 11.3909C81.8669 5.11953 76.7473 0 70.4759 0Z" fill="#212629"/>
<path d="M101.001 0C94.7299 0 89.6104 5.05553 89.6104 11.327C89.6104 17.5984 94.6659 22.7179 100.937 22.7179C107.209 22.7179 112.328 17.6624 112.328 11.3909C112.328 5.11953 107.273 0 101.001 0Z" fill="#212629"/>
<path d="M39.9505 0C33.6791 0 28.5596 5.05553 28.5596 11.3909C28.5596 17.6624 33.6151 22.7819 39.9505 22.7819C46.2859 22.7819 51.3415 17.7264 51.3415 11.3909C51.2775 5.11953 46.2219 0 39.9505 0Z" fill="#212629"/>
<path d="M139.781 22.3342H135.302C135.174 22.3342 135.046 22.2702 134.982 22.2062L126.983 13.1831H124.103V22.0782C124.103 22.2062 123.975 22.3342 123.847 22.3342H120.455C120.327 22.3342 120.199 22.2062 120.199 22.0782V0.704219C120.199 0.57623 120.327 0.448242 120.455 0.448242H123.847C123.975 0.448242 124.103 0.57623 124.103 0.704219V9.47141H127.111L134.47 0.57623C134.534 0.512236 134.662 0.448242 134.79 0.448242H139.141C139.205 0.448242 139.333 0.512236 139.333 0.57623C139.333 0.640224 139.333 0.640225 139.269 0.704219L130.31 11.3272L139.973 22.0782C140.037 22.1422 139.973 22.2702 139.909 22.3342C139.845 22.3342 139.781 22.3342 139.781 22.3342Z" fill="#212629"/>
<path d="M99.2096 36.4441L100.17 36.8281C100.234 36.8921 100.298 36.956 100.234 37.084C99.0816 39.1958 96.4579 39.9638 94.3461 38.8119C92.8742 37.98 91.9783 36.3801 92.0423 34.6523C92.1703 32.4125 94.0261 30.6206 96.2659 30.5566H96.3939C97.9937 30.5566 99.4656 31.4526 100.234 32.7964C100.298 32.8604 100.234 32.9884 100.17 32.9884L99.2096 33.4364C99.1456 33.5004 99.0176 33.4364 99.0176 33.3724C98.1857 31.9005 96.3299 31.4526 94.922 32.2845C94.666 32.4765 94.4101 32.6684 94.1541 32.8604C93.5781 33.5004 93.3222 34.3323 93.3862 35.2282C93.5781 36.8921 95.05 38.044 96.7138 37.852C97.6738 37.724 98.5057 37.212 98.9536 36.3801C99.0816 36.4441 99.1456 36.3801 99.2096 36.4441Z" fill="#212629"/>
<path d="M33.2315 34.3322L32.7196 34.2682C31.6317 34.0762 30.7997 33.8842 30.7357 33.1163C30.7357 32.8603 30.8637 32.6044 31.0557 32.4124C31.5037 32.0284 32.0156 31.9004 32.5916 31.9004C33.4235 31.9004 34.1914 32.0924 34.8954 32.4764C34.9593 32.5404 35.0873 32.4764 35.0873 32.4124L35.5993 31.5165C35.6633 31.4525 35.5993 31.3245 35.5353 31.2605C34.6394 30.7485 33.6155 30.4925 32.5276 30.5565C31.5677 30.4925 30.6077 30.8765 29.9038 31.5165C29.4559 31.9644 29.2639 32.6043 29.2639 33.1803C29.2639 34.5242 30.0958 35.2921 31.8236 35.5481L32.3996 35.6121C33.4875 35.8041 34.3834 35.996 34.3834 36.828C34.3834 37.0839 34.2554 37.3399 34.0634 37.5319C33.6155 37.9159 33.0395 38.1078 32.4636 38.0438C31.5037 38.0438 30.6077 37.7879 29.8398 37.2759C29.7758 37.2119 29.6478 37.2759 29.6478 37.3399L29.1359 38.1718C29.0719 38.2358 29.1359 38.3638 29.1999 38.4278C30.2238 39.0678 31.3757 39.3877 32.5916 39.3237C33.6155 39.3877 34.5754 39.0038 35.3433 38.3638C35.7913 37.9159 36.0472 37.2759 35.9833 36.636C35.9193 35.4201 35.0233 34.6522 33.2315 34.3322Z" fill="#212629"/>
<path d="M49.1019 37.9159H44.4303V35.6121H48.9099C48.9739 35.6121 49.1019 35.5481 49.1019 35.4201V34.4602C49.1019 34.3962 49.0379 34.2682 48.9099 34.2682H44.4303V32.0284H49.1019C49.1659 32.0284 49.2939 31.9645 49.2939 31.8365V30.8766C49.2939 30.8126 49.2299 30.6846 49.1019 30.6846H43.2144C43.1504 30.6846 43.0225 30.7486 43.0225 30.8766V39.0038C43.0225 39.0678 43.0865 39.1958 43.2144 39.1958H49.1019C49.1659 39.1958 49.2939 39.1318 49.2939 39.0038V38.0439C49.2939 37.9799 49.2299 37.9159 49.1019 37.9159Z" fill="#212629"/>
<path d="M77.8347 30.749H76.6189C76.5549 30.749 76.4269 30.813 76.4269 30.877L73.8671 38.0443L71.3073 30.877C71.3073 30.813 71.1794 30.749 71.1154 30.749H69.8995C69.8355 30.749 69.7715 30.813 69.7715 30.877C69.7715 30.877 69.7715 30.877 69.7715 30.941L72.8432 39.0683C72.8432 39.1323 72.9712 39.1962 73.0352 39.1962H74.699C74.763 39.1962 74.827 39.1323 74.891 39.0683L77.9627 30.941C77.9627 30.877 77.9627 30.813 77.8347 30.749C77.8987 30.749 77.8987 30.749 77.8347 30.749Z" fill="#212629"/>
<path d="M85.5143 30.749H84.4264C84.3624 30.749 84.2344 30.813 84.2344 30.941V39.0683C84.2344 39.1323 84.2984 39.2602 84.3624 39.2602H85.4503C85.5143 39.2602 85.6422 39.1962 85.6422 39.0683V30.877C85.6422 30.813 85.5783 30.749 85.5143 30.749Z" fill="#212629"/>
<path d="M63.628 38.9398L61.9002 35.9321L62.0922 35.8681C63.4361 35.2921 64.012 33.7563 63.5001 32.4764C63.3721 32.2204 63.2441 31.9645 63.0521 31.7085C62.4761 31.0685 61.6442 30.6846 60.7483 30.6846H57.3566C57.0366 30.6846 56.9727 30.7486 56.9727 30.8766V39.0038C56.9727 39.0678 57.0367 39.1958 57.1006 39.1958H58.1885C58.2525 39.1958 58.3805 39.1318 58.3805 39.0038V36.1241H60.5563L62.2202 39.0038C62.2842 39.0678 62.3482 39.1318 62.4761 39.1318H63.628C63.564 39.1958 63.628 39.1318 63.628 38.9398C63.628 39.0038 63.628 39.0038 63.628 38.9398ZM60.8763 34.9722H58.3165V32.0284H60.8763C61.7082 32.0924 62.2842 32.7964 62.2202 33.5643C62.2202 34.3322 61.5802 34.9082 60.8763 34.9722Z" fill="#212629"/>
<path d="M111.752 37.9159H107.08V35.6121H111.56C111.624 35.6121 111.752 35.5481 111.752 35.4201V34.4602C111.752 34.3962 111.688 34.2682 111.56 34.2682H107.08V32.0284H111.688C111.752 32.0284 111.88 31.9645 111.88 31.8365V30.8766C111.88 30.8126 111.816 30.6846 111.688 30.6846H105.8C105.736 30.6846 105.608 30.7486 105.608 30.8766V39.0038C105.608 39.0678 105.672 39.1958 105.8 39.1958H111.688C111.752 39.1958 111.88 39.1318 111.88 39.0038V38.0439C111.88 37.9799 111.816 37.9159 111.752 37.9159Z" fill="#212629"/>
</svg>

<svg width="140" height="40" fill="none" xmlns="http://www.w3.org/2000/svg"><path d="M21.328 16.19c.128.064.192.192.128.32-2.88 5.568-9.727 7.808-15.294 4.928-3.968-2.048-6.4-6.207-6.144-10.687C.274 4.928 5.01.256 10.833 0h.512c4.288 0 8.192 2.368 10.111 6.143.064.128 0 .256-.128.384l-3.007 1.344c-.128.064-.256 0-.32-.128-1.984-3.647-6.592-5.055-10.24-3.007a7.397 7.397 0 00-3.967 7.23 7.699 7.699 0 006.72 6.976c.255 0 .511.064.767.064 2.752 0 5.312-1.536 6.656-3.967.064-.128.192-.192.32-.128l3.071 1.28zM70.476 0c-6.272 0-11.391 5.12-11.391 11.39 0 6.272 5.12 11.392 11.39 11.392 6.272 0 11.392-5.12 11.392-11.391S76.747 0 70.476 0zm30.525 0c-6.271 0-11.39 5.056-11.39 11.327s5.055 11.39 11.326 11.39c6.272 0 11.391-5.055 11.391-11.326C112.328 5.12 107.273 0 101.001 0zM39.95 0c-6.27 0-11.39 5.056-11.39 11.39 0 6.272 5.055 11.392 11.39 11.392A11.335 11.335 0 0051.343 11.39C51.278 5.12 46.222 0 39.95 0zm99.831 22.334h-4.479a.489.489 0 01-.32-.128l-7.999-9.023h-2.88v8.895a.275.275 0 01-.256.256h-3.392a.275.275 0 01-.256-.256V.704c0-.128.128-.256.256-.256h3.392c.128 0 .256.128.256.256v8.767h3.008L134.47.576a.489.489 0 01.32-.128h4.351c.064 0 .192.064.192.128s0 .064-.064.128l-8.959 10.623 9.663 10.751c.064.064 0 .192-.064.256h-.128zM99.21 36.444l.96.384c.064.064.128.128.064.256a4.327 4.327 0 01-5.888 1.728 4.573 4.573 0 01-2.304-4.16c.128-2.24 1.984-4.031 4.224-4.095h.128c1.6 0 3.072.896 3.84 2.24.064.063 0 .191-.064.191l-.96.448c-.064.064-.192 0-.192-.064-.832-1.471-2.688-1.92-4.096-1.087l-.768.575c-.576.64-.832 1.472-.768 2.368.192 1.664 1.664 2.816 3.328 2.624.96-.128 1.792-.64 2.24-1.472.128.064.192 0 .256.064zm-65.979-2.112l-.511-.064c-1.088-.192-1.92-.384-1.984-1.152 0-.256.128-.512.32-.704.448-.384.96-.512 1.536-.512.831 0 1.6.192 2.303.576.064.064.192 0 .192-.064l.512-.895c.064-.064 0-.192-.064-.256a5.373 5.373 0 00-3.007-.704c-.96-.064-1.92.32-2.624.96-.448.447-.64 1.087-.64 1.663 0 1.344.832 2.112 2.56 2.368l.576.064c1.087.192 1.983.384 1.983 1.216 0 .256-.128.512-.32.704a2.107 2.107 0 01-1.6.512c-.96 0-1.855-.256-2.623-.768-.064-.064-.192 0-.192.064l-.512.832c-.064.064 0 .192.064.256 1.024.64 2.176.96 3.392.896 1.023.064 1.983-.32 2.751-.96.448-.448.704-1.088.64-1.728-.064-1.216-.96-1.984-2.752-2.304zm15.871 3.584H44.43v-2.304h4.48c.064 0 .192-.064.192-.192v-.96c0-.064-.064-.192-.192-.192h-4.48v-2.24h4.672c.064 0 .192-.063.192-.191v-.96c0-.064-.064-.192-.192-.192h-5.888c-.064 0-.191.064-.191.192v8.127c0 .064.063.192.191.192h5.888c.064 0 .192-.064.192-.192v-.96c0-.064-.064-.128-.192-.128zm28.733-7.167h-1.216c-.064 0-.192.064-.192.128l-2.56 7.167-2.56-7.167c0-.064-.128-.128-.192-.128H69.9a.138.138 0 00-.129.128v.064l3.072 8.127c0 .064.128.128.192.128H74.7c.064 0 .128-.064.192-.128l3.072-8.127c0-.064 0-.128-.128-.192.064 0 .064 0 0 0zm7.679 0h-1.088c-.064 0-.192.064-.192.192v8.127c0 .064.064.192.128.192h1.088c.064 0 .192-.064.192-.192v-8.191a.138.138 0 00-.128-.128zM63.628 38.94L61.9 35.932l.192-.064a2.638 2.638 0 001.408-3.392 4.773 4.773 0 00-.448-.767 3.098 3.098 0 00-2.304-1.024h-3.391c-.32 0-.384.064-.384.192v8.127c0 .064.064.192.128.192h1.087c.064 0 .192-.064.192-.192v-2.88h2.176l1.664 2.88c.064.064.128.128.256.128h1.152c-.064.064 0 0 0-.192 0 .064 0 .064 0 0zm-2.752-3.968h-2.56v-2.944h2.56c.832.064 1.408.768 1.344 1.536 0 .768-.64 1.344-1.344 1.408zm50.876 2.944h-4.672v-2.304h4.48c.064 0 .192-.064.192-.192v-.96c0-.064-.064-.192-.192-.192h-4.48v-2.24h4.608c.064 0 .192-.063.192-.191v-.96c0-.064-.064-.192-.192-.192H105.8c-.064 0-.192.064-.192.192v8.127c0 .064.064.192.192.192h5.888c.064 0 .192-.064.192-.192v-.96a.138.138 0 00-.128-.128z" fill="#212629"/></svg>
